!!!!SEGMENT: pl-kk--kk-i-278--002_anonim--aeterne-rex-altissime.krn
!!!cenid: 17xx:2088
!!!COM: Anonim
!!!COM-rismid: pe30004985
!!!CDT:
!!!CNT:
!!!OTL: Aeterne rex altissime
!!!PDT:
!!!AGN: Sacred
!!!SMS-siglum: PL-Kk
!!!SMS-shelfmark: Kk.I.278
!!!SMS-shelfwork: 002 W
!!!SMS-variant:
!!!SMS-altvar:
!!!NIFC-rismid: 1001147615
!!!URL-scan: http://repozytorium.nifc.pl/skany/pl-kk-nut--i-278
!!!ONB-nifc: UWAGA: utwory w zbiorze: 1. Salutis humanae sator (SATBB), 2. Aeterne rex altissime (tylko głos B conc)
**kern	**text	**text	**text	**text	**text
*Ibass	*	*	*	*	*
*I"Basso in concertare	*	*	*	*	*
*I'B.	*	*	*	*	*
*clefF4	*	*	*	*	*
*k[]	*	*	*	*	*
*a:	*	*	*	*	*
*M3/1	*	*	*	*	*
=1-	=1	=1	=1	=1	=1
!LO:TX:t=P:problem:pierwszy tekst znalazłem w internecie, natomiast drugiego i trzeciego nie, stąd jego zagadkowy charakter.	!	!	!	!	!
1AA/	1 Ae-	3 Ut	5 Sis	.	.
1A\	-ter-	Tri-	pa-	.	.
8qA/	.	.	.	.	.
!LO:TX:t=P:problem:kreska pseudotaktowa	!	!	!	!	!
1G\	-ne	-na	-se	.	.
=2-	=2	=2	=2	=2	=2
1A\	Rex	re-	nos	.	.
(2AA/	al-	-tu	co-	.	.
2BB/)	.	.	.	.	.
!LO:TX:t=P:problem:kreska pseudotaktowa	!	!	!	!	!
1C/	-tiſ-	Nu-	-la	.	.
=3-	=3	=3	=3	=3	=3
0F\	-si-	-chi-	gau-	.	.
1F\	-me,	-na	-di-	.	.
=4-	=4	=4	=4	=4	=4
1.E\,	.	.	-(um)	.	.
2E\	Re-	cae-	ma-	.	.
(2GG/	-dem-	-les-	.	.	.
!LO:TX:t=P:problem:kreska pseudotaktowa	!	!	!	!	!
2AA/)	.	.	-rens	.	.
=5-	=5	=5	=5	=5	=5
1.BB/,	-ptor	-tu	sly-	.	.
*	*ij	*ij	*	*	*
2BB/	Re-	cae-	-mpo	.	.
(2F#X\	-dem-	-les-	.	.	.
!LO:TX:t=P:problem:kreska pseudotaktowa	!	!	!	!	!
2G\)	.	.	.	.	.
=6-	=6	=6	=6	=6	=6
0A\,	-ptor	-tu	.	.	.
*	*Xij	*Xij	*	*	*
(2E\	et	.	.	.	.
!LO:TX:t=P:problem:kreska pseudotaktowa	!	!	!	!	!
2F\)	.	.	.	.	.
=7-	=7	=7	=7	=7	=7
2GG/	fi-	ter-	gra-	.	.
2AA/	.	-rey-	.	.	.
1.BB/	-de-	-na	-min	.	.
2BB/	-li-	.	.	.	.
=8-	=8	=8	=8	=8	=8
!LO:TX:t=P:problem:kreska pseudotaktowa	!	!	!	!	!
0.E\	-um	.	.	.	.
=9-	=9	=9	=9	=9	=9
1C/	Cui	Et	Mun-	.	.
1C/	mors	in-	-di	.	.
!LO:TX:t=P:problem:kreska pseudotaktowa	!	!	!	!	!
1BB/	.	-ter	re-	.	.
=10-	=10	=10	=10	=10	=10
0AA/	pe-	no-	-gis	.	.
1D\	-rem-	-bis	qui	.	.
=11-	=11	=11	=11	=11	=11
1BB/	-pta	con	sab-	.	.
1.D\	de-	.	-ri-	.	.
!LO:TX:t=P:problem:kreska pseudotaktowa	!	!	!	!	!
2D/	-tu-	di-	.	.	.
=12-	=12	=12	=12	=12	=12
0GG/	-lit	-ta	-sa	.	.
1GG/	.	fle-	Mun-	.	.
=13-	=13	=13	=13	=13	=13
0D\	Sum-	-ctat	-do	.	.
!LO:TX:t=P:problem:kreska pseudotaktowa	!	!	!	!	!
1AA/	-mae	.	na	.	.
=14-	=14	=14	=14	=14	=14
1E\	Tri-	ge-	U-	.	.
1E\	-um-	-nu	-nus	.	.
*	*	*	*ij	*	*
1BB/	-phum	.	Mun-	.	.
=15-	=15	=15	=15	=15	=15
1.D\	Tri-	.	-do	.	.
2C/	-um-	.	na	.	.
!LO:TX:t=P:problem:kreska pseudotaktowa	!	!	!	!	!
1BB/	.	.	u-	.	.
=16-	=16	=16	=16	=16	=16
1AA/	-phum	iam	-nus	.	.
*	*	*	*Xij	*	*
1.E\	glo-	sub-	gau-	.	.
2E\	-ri-	-di-	-di-	.	.
=17-	=17	=17	=17	=17	=17
!LO:TX:t=P:problem:wykreślone kilka taktów	!	!	!	!	!
0.AA/;	-ae	-ca	-a	.	.
!LO:LB:g=original	!	!	!	!	!
=18||	=18||	=18||	=18||	=18||	=18||
*M3/1	*	*	*	*	*
!LO:SIC:v:t=kreski pseudotatkowe pokrywaja się z taktowymi	!	!	!	!	!
0AA/	2 as-	4 Tre-	6 Hic	.	.
1E\	-cen-	-mor	te	.	.
=19	=19	=19	=19	=19	=19
1C/	-dis	vi-	pian-	.	.
1D\	or-	-den-	-tes	.	.
1E\	-bes	-tes	.	.	.
=20	=20	=20	=20	=20	=20
0F\	si-	an-	ga-	.	.
1F\	-de-	-ge-	-su-	.	.
=21	=21	=21	=21	=21	=21
0E\,	-rum	-li	-m(us)	.	.
1E\	quo	ver-	ig-	.	.
=22	=22	=22	=22	=22	=22
1.E\	te	-sa	-no	.	.
2E\	vo-	vi-	sae-	.	.
1BB/	-ca-	-ven	-cul-	.	.
=23	=23	=23	=23	=23	=23
1E\	-bat	mor-	-pis	.	.
1C/	coe-	-tu-	om-	.	.
2D/	-li-	-li-	-ni-	.	.
2D/	.	.	.	.	.
=24	=24	=24	=24	=24	=24
0GG/	-tus	-um	-b(us)	.	.
1D\	col-	pei-	et	.	.
=25	=25	=25	=25	=25	=25
1.F\	-la-	-cat	Cor-	.	.
2E\	-ta	Ca-	-da	.	.
1D\	n(on)	-to	Sur-	.	.
!!linebreak:original
=26	=26	=26	=26	=26	=26
1C/	hu-	mun-	-su(m)	.	.
1.GG/	-mani-	-di	Sub	.	.
2GG/	.	et	ter-	.	.
=27	=27	=27	=27	=27	=27
0.C/	-t(us)	Caro	-ra	.	.
!!LO:LB:g=original
=28	=28	=28	=28	=28	=28
1C/	re-	Re-	ad	Je-	.
1D\	-rum	-gnat	Te	.	.
1E\	po-	.	Su-	-sus,	.
=29	=29	=29	=29	=29	=29
1.F\	-tes-	De-	-per-	Ti-	at-
2E\	-tas	.	.	-bi	-mo
*	*ij	*	*	*	*
1D\	re-	-(us)	-na	Sur	in
=30	=30	=30	=30	=30	=30
*	*	*ij	*ij	*	*
1E\	-rum	Re-	ad	glo-	sem-
1E\	.	-gnat	Te	-ri-	-pi-
1C/	po-	De-	Su-	-a	-ter-
=31	=31	=31	=31	=31	=31
1D\	-tes-	.	-per-	qui	-na
2C/	-tas	-us	-na	Vi-	Sa-
*	*Xij	*Xij	*Xij	*	*
2BB/	.	.	.	-nor	-cu-
1AA/	.	My	.	in	-la
=32	=32	=32	=32	=32	=32
1C/	om-	Ca-	gau-	Cae-	.
1.E\	-ni-	-ro	-di-	-lu	.
2E\	-u(m)	.	-a	re-	.
=33	=33	=33	=33	=33	=33
0.AA/	.	.	.	-dis	.
=34||	=34||	=34||	=34||	=34||	=34||
*M2/1	*	*	*	*	*
*met(C|)	*	*	*	*	*
2r	.	.	.	.	.
!LO:TX:t=P:problem:kreska pseudotaktowa	!	!	!	!	!
2C/	a-	.	.	cur	.
2C/	-men	.	.	star-	.
2BB/	.	.	.	-re	.
=35-	=35	=35	=35	=35	=35
2AA/	a-	.	.	at	.
2C/	.	.	.	.	.
0D\	.	.	.	.	.
=36-	=36	=36	=36	=36	=36
.	.	.	.	.	.
00AA/;	-men	.	.	.	.
==	==	==	==	==	==
*-	*-	*-	*-	*-	*-
!!!EED: Leszek Kubiak
!!!EST: 2021-04-01
!!!ENC: Andrzej Gręziak
!!!END: 2021-03-10
